src/assets/img/firebase.svg

<svg width="44" height="60" viewBox="0 0 44 60" fill="none" xmlns="http://www.w3.org/2000/svg">
<path d="M1.64916 39.1719L7.58056 1.16324C7.78509 -0.132123 9.5236 -0.43892 10.1372 0.720089L16.5117 12.6511L1.64916 39.1719ZM43.8166 48.4099L38.1579 13.401C37.9875 12.3102 36.624 11.867 35.8399 12.6511L0.18335 48.4099L19.9206 59.4887C21.1478 60.1704 22.6818 60.1704 23.909 59.4887L43.8166 48.4099ZM27.795 17.8666L23.2272 9.17404C22.7159 8.18547 21.3182 8.18547 20.8069 9.17404L0.728766 44.967L27.795 17.8666Z" fill="#930f50"/>
</svg>

<svg width="44" height="60" fill="none" xmlns="http://www.w3.org/2000/svg"><path d="M1.65 39.172 7.58 1.163C7.786-.132 9.525-.439 10.138.72l6.375 11.931-14.863 26.52Zm42.167 9.238L38.157 13.4c-.17-1.09-1.533-1.534-2.317-.75L.183 48.41l19.738 11.079a4.145 4.145 0 0 0 3.988 0l19.908-11.08ZM27.795 17.867l-4.568-8.693a1.358 1.358 0 0 0-2.42 0L.729 44.967l27.066-27.1Z" fill="#930f50"/></svg>
